packages/ui-solid/icons/devices_28.svg

<svg width="28" height="28" viewBox="0 0 28 28" fill="none" xmlns="http://www.w3.org/2000/svg">
<path fill-rule="evenodd" clip-rule="evenodd" d="M4.0306 7.90389C4.0306 6.31006 5.32266 5.01801 6.91648 5.01801H23.6573C24.1543 5.01801 24.5573 5.42095 24.5573 5.91801C24.5573 6.41506 24.1543 6.81801 23.6573 6.81801H6.91648C6.31677 6.81801 5.8306 7.30417 5.8306 7.90389V20.8031H15.4643C15.9614 20.8031 16.3643 21.206 16.3643 21.7031C16.3643 22.2001 15.9614 22.6031 15.4643 22.6031H2.00456C1.5075 22.6031 1.10456 22.2001 1.10456 21.7031C1.10456 21.206 1.5075 20.8031 2.00456 20.8031H4.0306V7.90389ZM20.9615 11.6749C20.3618 11.6749 19.8756 12.1611 19.8756 12.7608V19.7172C19.8756 20.3169 20.3618 20.8031 20.9615 20.8031H24.0122C24.6119 20.8031 25.0981 20.3169 25.0981 19.7172V12.7608C25.0981 12.1611 24.6119 11.6749 24.0122 11.6749H20.9615ZM18.0756 12.7608C18.0756 11.167 19.3676 9.87495 20.9615 9.87495H24.0122C25.606 9.87495 26.8981 11.167 26.8981 12.7608V19.7172C26.8981 21.311 25.606 22.6031 24.0122 22.6031H20.9615C19.3676 22.6031 18.0756 21.311 18.0756 19.7172V12.7608Z" fill="#007AFF"/>
</svg>

<svg xmlns="http://www.w3.org/2000/svg" width="28" height="28" fill="none"><path fill="currentColor" fill-rule="evenodd" d="M4.03 7.904a2.886 2.886 0 0 1 2.886-2.886h16.741a.9.9 0 0 1 0 1.8H6.917c-.6 0-1.086.486-1.086 1.086v12.9h9.633a.9.9 0 1 1 0 1.8H2.004a.9.9 0 0 1 0-1.8h2.027zm16.932 3.77c-.6 0-1.086.487-1.086 1.087v6.956c0 .6.486 1.086 1.085 1.086h3.051c.6 0 1.086-.486 1.086-1.086v-6.956c0-.6-.486-1.086-1.086-1.086zm-2.886 1.087a2.886 2.886 0 0 1 2.886-2.886h3.05a2.886 2.886 0 0 1 2.886 2.886v6.956a2.886 2.886 0 0 1-2.886 2.886h-3.05a2.886 2.886 0 0 1-2.886-2.886z" clip-rule="evenodd"/></svg>
